X: 10625
T: Dowd's No. 9
R: reel
M: 4/4
K: Dmajor
FE|:DFAF GFEC|D2 FA dABG|FGAF GFGB|AG (3FED A,B,CE|
DFAF GFEF|(3DDD FA dABG|FGAF GFGB|AGFD ED D2:|
g|:fd ~d2 g2 ag|fd ~d2 ed=cA|fd ~d2 gfec|dcde fdde|
f!slide!g (3agf gfed|fd ~d2 e=cAG|FGAF GFGB|1 AGFD ED D2|2 AG (3FED A,B,CE:|

